X: 8465
T: Craigie Dhu
R: reel
M: 4/4
K: Amixolydian
ed|cA A/A/A cAdB|cA A/A/A cdBd|cA A/A/A cAce|a2 fa edBd|
cA A/A/A cAdB|cA A/A/A cdBd|cdef gBBB|Bcde f2:|
eg|feae cA A/A/A|feae c2 Ag|feae cA A/A/A|BABc defg|
feae cA A/A/A|feae c2 A2|cdef gBBB|Bcde f2:|

